src/next/cmd/sc_handoutmode.svg

<svg height="16" viewBox="0 0 4.2333333 4.2333335" width="16" xmlns="http://www.w3.org/2000/svg" xmlns:xlink="http://www.w3.org/1999/xlink"><filter id="a" color-interpolation-filters="sRGB" height="1.0264" width="1.022" x="-.011" y="-.0132"><feGaussianBlur stdDeviation=".1200918"/></filter><filter id="b" color-interpolation-filters="sRGB" height="1.132" width="1.11" x="-.055" y="-.066"><feGaussianBlur stdDeviation=".600459"/></filter><filter id="c" color-interpolation-filters="sRGB" height="1.0528" width="1.044" x="-.022" y="-.0264"><feGaussianBlur stdDeviation=".2401836"/></filter><g transform="matrix(.125 0 0 .125 0 -32.891665)"><path d="m2.4287318 271.26587h29.0092052v21.83486h-29.0092052z" fill="#a4a4a4" filter="url(#b)" transform="matrix(0 1.09448 -1.09448 0 325.77732 261.53346)"/><path d="m1.8599554 271.26588h30.1467556v21.83486h-30.1467556z" fill="#949494" filter="url(#a)" transform="matrix(0 1.0531812 -1.0531812 0 314.12348 262.23278)"/><path d="m1.7325692 271.26588h30.4015288v21.83486h-30.4015288z" fill="#313131" filter="url(#c)" transform="matrix(0 1.0080161 -1.0080161 0 301.37865 262.99758)"/><path d="m27.516653 265.24998v29.63334h-21.16664v-29.63334z" fill="#80b3ff" opacity=".99"/><path d="m24.341653 268.42498v23.28334h-14.81666v-23.28334z" fill="#80b3ff" opacity=".99"/><g fill="#eee" transform="translate(.00003 .529153)"><path d="m25.399993 268.95416v1.05833h-16.93333v-1.05833z"/><path d="m25.399996 270.0125v1.05834h-16.9333297v-1.05834z"/><path d="m24.34167 270.0125h1.05833v19.05h-1.05833z"/><path d="m8.46664 270.0125h1.05833v19.05h-1.05833z"/><path d="m25.400003 275.30413v2.1167h-16.93333v-2.1167z"/><path d="m16.933323 270.01249h1.05833v17.99167h-1.05833z"/><path d="m25.400003 281.65417v2.11666h-16.93333v-2.11666z"/><path d="m25.400003 288.00421v2.11662h-16.93333v-2.11662z"/></g></g></svg>

<?xml version="1.0" encoding="UTF-8" standalone="no"?>
<svg
   xmlns:dc="http://purl.org/dc/elements/1.1/"
   xmlns:cc="http://creativecommons.org/ns#"
   xmlns:rdf="http://www.w3.org/1999/02/22-rdf-syntax-ns#"
   xmlns:svg="http://www.w3.org/2000/svg"
   xmlns="http://www.w3.org/2000/svg"
   xmlns:sodipodi="http://sodipodi.sourceforge.net/DTD/sodipodi-0.dtd"
   xmlns:inkscape="http://www.inkscape.org/namespaces/inkscape"
   height="16"
   viewBox="0 0 4.2333333 4.2333335"
   width="16"
   version="1.1"
   id="svg41"
   sodipodi:docname="sc_handoutmode.svg"
   inkscape:version="0.92.3 (2405546, 2018-03-11)"
   inkscape:export-filename="/home/rizmut/Dokumen/Rizmut/Github/libreoffice-style-karasa-jaga/build/next/cmd/sc_handoutmode.png"
   inkscape:export-xdpi="96"
   inkscape:export-ydpi="96">
  <metadata
     id="metadata47">
    <rdf:RDF>
      <cc:Work
         rdf:about="">
        <dc:format>image/svg+xml</dc:format>
        <dc:type
           rdf:resource="http://purl.org/dc/dcmitype/StillImage" />
        <dc:title></dc:title>
      </cc:Work>
    </rdf:RDF>
  </metadata>
  <defs
     id="defs45" />
  <sodipodi:namedview
     pagecolor="#ffffff"
     bordercolor="#666666"
     borderopacity="1"
     objecttolerance="10"
     gridtolerance="10"
     guidetolerance="10"
     inkscape:pageopacity="0"
     inkscape:pageshadow="2"
     inkscape:window-width="1366"
     inkscape:window-height="714"
     id="namedview43"
     showgrid="true"
     inkscape:zoom="29.5"
     inkscape:cx="11.764636"
     inkscape:cy="8.4458822"
     inkscape:window-x="0"
     inkscape:window-y="28"
     inkscape:window-maximized="1"
     inkscape:current-layer="g39">
    <inkscape:grid
       type="xygrid"
       id="grid854" />
  </sodipodi:namedview>
  <filter
     id="a"
     height="1.0264"
     width="1.022"
     x="-0.011"
     y="-0.0132"
     style="color-interpolation-filters:sRGB">
    <feGaussianBlur
       stdDeviation=".1200918"
       id="feGaussianBlur2" />
  </filter>
  <filter
     id="b"
     height="1.132"
     width="1.11"
     x="-0.055"
     y="-0.066"
     style="color-interpolation-filters:sRGB">
    <feGaussianBlur
       stdDeviation=".600459"
       id="feGaussianBlur5" />
  </filter>
  <filter
     id="c"
     height="1.0528001"
     width="1.044"
     x="-0.022"
     y="-0.0264"
     style="color-interpolation-filters:sRGB">
    <feGaussianBlur
       stdDeviation=".2401836"
       id="feGaussianBlur8" />
  </filter>
  <g
     transform="matrix(0.125,0,0,0.125,0,-32.891665)"
     id="g39">
    <path
       style="fill:#a4a4a4;filter:url(#b)"
       inkscape:connector-curvature="0"
       d="M 2.4287318,271.26587 H 31.437937 v 21.83486 H 2.4287318 Z"
       transform="matrix(0,1.09448,-1.09448,0,325.77732,261.53346)"
       id="path11" />
    <path
       style="fill:#949494;filter:url(#a)"
       inkscape:connector-curvature="0"
       d="M 1.8599554,271.26588 H 32.006711 v 21.83486 H 1.8599554 Z"
       transform="matrix(0,1.0531812,-1.0531812,0,314.12348,262.23278)"
       id="path13" />
    <path
       style="fill:#313131;filter:url(#c)"
       inkscape:connector-curvature="0"
       d="M 1.7325692,271.26588 H 32.134098 v 21.83486 H 1.7325692 Z"
       transform="matrix(0,1.0080161,-1.0080161,0,301.37865,262.99758)"
       id="path15" />
    <path
       style="opacity:0.98999999;fill:#80b3ff"
       inkscape:connector-curvature="0"
       d="m 27.516653,265.24998 v 29.63334 H 6.350013 v -29.63334 z"
       id="path17" />
    <path
       style="opacity:0.98999999;fill:#80b3ff"
       inkscape:connector-curvature="0"
       d="m 24.341653,268.42498 v 23.28334 H 9.524993 v -23.28334 z"
       id="path19" />
    <g
       style="fill:#eeeeee"
       id="g37"
       transform="translate(3.015e-5,0.52915345)">
      <path
         inkscape:connector-curvature="0"
         d="m 25.399993,268.95416 v 1.05833 H 8.466663 v -1.05833 z"
         id="path21" />
      <path
         inkscape:connector-curvature="0"
         d="m 25.399996,270.0125 v 1.05834 H 8.4666663 v -1.05834 z"
         id="path23" />
      <path
         inkscape:connector-curvature="0"
         d="M 24.34167,270.0125 H 25.4 v 19.05 h -1.05833 z"
         id="path25" />
      <path
         inkscape:connector-curvature="0"
         d="m 8.46664,270.0125 h 1.05833 v 19.05 H 8.46664 Z"
         id="path27" />
      <path
         inkscape:connector-curvature="0"
         d="m 25.400003,275.30413 v 2.1167 H 8.466673 v -2.1167 z"
         id="path29" />
      <path
         inkscape:connector-curvature="0"
         d="m 16.933323,270.01249 h 1.05833 v 17.99167 h -1.05833 z"
         id="path31" />
      <path
         inkscape:connector-curvature="0"
         d="m 25.400003,281.65417 v 2.11666 H 8.466673 v -2.11666 z"
         id="path33" />
      <path
         inkscape:connector-curvature="0"
         d="m 25.400003,288.00421 v 2.11662 H 8.466673 v -2.11662 z"
         id="path35" />
    </g>
  </g>
</svg>
